X: 21777
T: King Robert The Bruce
R: hornpipe
M: 4/4
K: Dmajor
|:A,|D>EFD EA,D2|d>cB/A/G/F/ FEEA|D>E FD G/F/G/A/ B^G/B/|A/B/c/d/ e/f/g/e/ fdd:|
|:a|d'fdd 'bdGb|e'be^g aAAF|D>E FD G/F/G/A/ B^G/B/|A/B/c/d/ e/f/g/e/ fdd:|

